X:1
T:Title
L:1/8
M:4/4
I:linebreak $
K:D
V:1 treble nm="Voice"
V:1
"E" EB^GB AGEc |"Bm" dBcA Beec | d2 fd"D" AFDF |"Em7" GEFD EDB,A, |"Em7" B,EEF GFGA | %5
 (3BBB A=c Bdef | g2 fg efPfe |1"D" dBAF"Em7" E3 D :|2"D" dBAF"Em7" E3 A |:"Em7" Beef gefd | %10
 B2 AG"D" FDDA |"Em" Beef gefd | Be^df e2 ef |"Em7" edBc Pd3 c | BcdB"D" AFDF | %15
"Em" G PB3"D" AFDF |1"Em7" GEPED E3 A :|2"Em7" GEPED E3 D |] %18
